public/images/icons/16x16/decouvrir_16_purple.svg

<svg height="16" viewBox="0 0 16 16" width="16" xmlns="http://www.w3.org/2000/svg"><g fill="#1e1169" fill-rule="evenodd" stroke="#1e1169" stroke-width=".1" transform="translate(1.75 2.15)"><path d="m12.4215201 4.30574198-1.394034-3.85573656c-.1248837-.34570405-.5077285-.52535993-.8535301-.4002812-.2955896.10688635-.46944147.4022809-.4356173.70186994l-.76703086.27722655c-.09610748.03475087-.14585609.14088123-.11117838.23698871.03477525.09622942.14090561.14595364.2370131.11117839l.74978955-.27110553 1.24734879 3.45040735-3.22200271 1.16492217c-.40123228-.6797757-1.24303237-1.00155652-2.01179467-.72357399-.35167876.12707843-.63480687.36045793-.82655849.65070691l-.67502032-1.86671895c-.12183531-.33721752.05335782-.71081981.39067289-.83285022l3.34171639-1.22962509c.09620503-.03477526.14592925-.14088123.11105645-.2370131-.03465332-.09610748-.14088122-.1458317-.23698871-.11105645l-3.34171639 1.2296251c-.52926178.19145898-.80409845.77768779-.61281018 1.30685202l.06391721.1769002-2.82179467 1.02004154c-.15431823-.28529851-.49887611-.42303387-.81295077-.30958753-.34570405.12507873-.52516484.50792353-.4002812.85362758l.60976185 1.68647779c.09800964.27120307.35455638.44000693.62756405.44000693.07496433 0 .151465-.01265663.22596598-.03962818.16746259-.06057625.3012961-.1827042.37694325-.34397261.06133223-.13088273.07840283-.27473912.05018757-.41391329l2.82169712-1.02004155.06299052.17424206c-.08849887.32214662-.08240223.67358152.03953063 1.01106729.13212645.36533524.38094265.66692398.709381.86440645l-.91335029 1.9777754h-.78246756c-.38723438 0-.70216258.31492819-.70216258.70206499 0 .3872344.31502575.7022602.70216258.7022602h.14785579c.10210658 0 .18509408-.0828656.18509408-.1850941 0-.1023017-.0829875-.1850697-.18509408-.1850697h-.14785579c-.18307 0-.33207195-.1489044-.33207195-.3320964 0-.1829968.14900195-.3318768.33207195-.3318768h.89974259l3.32362155.0000975.90076683-.0000975c.18309438 0 .33190125.14888.33190125.3318768 0 .183192-.14880687.3320964-.33190125.3320964h-3.59736764c-.10220413 0-.18509408.082768-.18509408.1850697 0 .1022285.08288995.1850941.18509408.1850941h3.59736764c.38723438 0 .70226012-.3150258.70226012-.7022602 0-.3871368-.31512329-.70206499-.70226012-.70206499h-.78244318l-.91337468-1.9777754c.65377962-.3944772.96929309-1.19933163.72808551-1.94731658l3.21293093-1.1616056c.1237374.18843505.3354129.30083276.5579404.30083276.0750618 0 .151465-.01285173.2259416-.03972573.1674869-.06057624.3013204-.18260665.3769432-.34387505.0756471-.16126841.0839386-.34226555.0234355-.50975253zm-10.87677706 2.92848593c-.03353154.07174529-.09308355.12612735-.16756014.15300135-.15375734.05552823-.32407316-.02428902-.37952823-.17794881l-.60976185-1.6864778c-.05552823-.15375734.02428903-.32407316.17794882-.37972332.0332389-.01190065.06716062-.0176071.10049706-.0176071.12146952 0 .23547675.07515941.27920187.19575101l.60966431 1.68638025c.02697155.07450098.02326479.15500106-.01046184.22662442zm.26644769-.60727443-.4253506-1.17674966 2.81474695-1.01755411.42542376 1.17674966zm3.24702333 3.35810417.84162938-1.82260364c.17192534.05782056.35026434.08696252.52906669.08696252.17850971 0 .35740961-.0292395.53106639-.08725516l.84192202 1.82279874h-2.74368448zm1.81555592-2.18440283c-.32541442.11764083-.67692247.10239922-.99089959-.04257895 0 0-.00009755-.00009755-.00017071-.00009755-.00009754 0-.00019509-.00009754-.00039018-.00019509-.00219479-.00095108-.00438958-.00180461-.00648683-.00285323-.31558663-.14802649-.55469697-.41018215-.67328888-.73798645-.2446217-.67682493.1069839-1.42651694.78371128-1.67123619.1460268-.05277254.2954921-.07772.44246997-.07772.53440734 0 1.03691705.33073069 1.22876622.86152882.24462171.67672738-.10698389 1.42651694-.78371128 1.67113864zm5.18909682-3.14233177c-.0335316.07172091-.0930592.1260298-.1675602.15287942-.1537329.05552822-.3240731-.02428903-.3796013-.17794882l-1.3939365-3.85583411c-.0555526-.15375734.0243866-.32397561.178022-.37952823.0331657-.01209574.067063-.01770465.1004239-.01770465.1214451 0 .2355743.07515942.2792018.19565347l1.393839 3.8558585c.0269715.07437905.0233379.15497667-.0103887.22662442z"/><path d="m6.12988198 5.74303778c-.22167394.08010989-.39903748.24186603-.49914436.45544363-.10013127.21338251-.11098329.45305374-.0308734.67482523.08010989.2217471.24186602.39903748.45534608.49914436.11907963.05582087.24642631.08393858.37418756.08393858.10125305 0 .20270119-.01763149.30073521-.05306518.22164956-.08010989.39903749-.24186602.49914436-.45534608.10003372-.2133825.1109833-.45305374.03087341-.67492277-.16556044-.45771158-.6725329-.69557821-1.13026886-.53001777zm.76408009 1.04776908c-.05801566.12393256-.16087822.21784526-.28978564.26435045-.12868795.04657835-.26786211.04018907-.39179467-.01802168-.12393257-.05799127-.21786964-.16087822-.26435045-.28976125-.04657835-.12871233-.04018907-.2678865.01792413-.39181906.05808882-.12393256.16107331-.21784525.2898588-.26435044.05725967-.02075298.11593377-.03058076.17365678-.03058076.20987084 0 .40725576.12995604.48251272.33836369.04657836.12871233.04018907.26788649-.01802167.39181905z"/></g></svg>

<svg xmlns="http://www.w3.org/2000/svg" width="16" height="16" viewBox="0 0 16 16">
  <g fill="#1E1169" fill-rule="evenodd" stroke="#1E1169" stroke-width=".1" transform="translate(1.75 2.15)">
    <path d="M12.4215201,4.30574198 L11.0274861,0.450005419 C10.9026024,0.10430137 10.5197576,-0.0753545085 10.173956,0.049724221 C9.8783664,0.156610568 9.70451453,0.452005118 9.7383387,0.751594159 L8.97130784,1.02882071 C8.87520036,1.06357158 8.82545175,1.16970194 8.86012946,1.26580942 C8.89490471,1.36203884 9.00103507,1.41176306 9.09714256,1.37698781 L9.84693211,1.10588228 L11.0942809,4.55628963 L7.87227819,5.7212118 C7.47104591,5.0414361 6.62924582,4.71965528 5.86048352,4.99763781 C5.50880476,5.12471624 5.22567665,5.35809574 5.03392503,5.64834472 L4.35890471,3.78162577 C4.2370694,3.44440825 4.41226253,3.07080596 4.7495776,2.94877555 L8.09129399,1.71915046 C8.18749902,1.6843752 8.23722324,1.57826923 8.20235044,1.48213736 C8.16769712,1.38602988 8.06146922,1.33630566 7.96536173,1.37108091 L4.62364534,2.60070601 C4.09438356,2.79216499 3.81954689,3.3783938 4.01083516,3.90755803 L4.07475237,4.08445823 L1.2529577,5.10449977 C1.09863947,4.81920126 0.75408159,4.6814659 0.440006925,4.79491224 C0.0943028752,4.91999097 -0.0851579106,5.30283577 0.0397257263,5.64853982 L0.649487581,7.33501761 C0.747497215,7.60622068 1.00404396,7.77502454 1.27705163,7.77502454 C1.35201596,7.77502454 1.42851663,7.76236791 1.50301761,7.73539636 C1.6704802,7.67482011 1.80431371,7.55269216 1.87996086,7.39142375 C1.94129309,7.26054102 1.95836369,7.11668463 1.93014843,6.97751046 L4.75184555,5.95746891 L4.81483607,6.13171097 C4.7263372,6.45385759 4.73243384,6.80529249 4.8543667,7.14277826 C4.98649315,7.5081135 5.23530935,7.80970224 5.5637477,8.00718471 L4.65039741,9.98496011 L3.86792985,9.98496011 C3.48069547,9.98496011 3.16576727,10.2998883 3.16576727,10.6870251 C3.16576727,11.0742595 3.48079302,11.3892853 3.86792985,11.3892853 L4.01578564,11.3892853 C4.11789222,11.3892853 4.20087972,11.3064197 4.20087972,11.2041912 C4.20087972,11.1018895 4.11789222,11.0191215 4.01578564,11.0191215 L3.86792985,11.0191215 C3.68485985,11.0191215 3.5358579,10.8702171 3.5358579,10.6870251 C3.5358579,10.5040283 3.68485985,10.3551483 3.86792985,10.3551483 L4.76767244,10.3551483 L8.09129399,10.3552458 L8.99206082,10.3551483 C9.1751552,10.3551483 9.32396207,10.5040283 9.32396207,10.6870251 C9.32396207,10.8702171 9.1751552,11.0191215 8.99206082,11.0191215 L5.39469318,11.0191215 C5.29248905,11.0191215 5.2095991,11.1018895 5.2095991,11.2041912 C5.2095991,11.3064197 5.29248905,11.3892853 5.39469318,11.3892853 L8.99206082,11.3892853 C9.3792952,11.3892853 9.69432094,11.0742595 9.69432094,10.6870251 C9.69432094,10.2998883 9.37919765,9.98496011 8.99206082,9.98496011 L8.20961764,9.98496011 L7.29624296,8.00718471 C7.95002258,7.61270751 8.26553605,6.80785308 8.02432847,6.05986813 L11.2372594,4.89826253 C11.3609968,5.08669758 11.5726723,5.19909529 11.7951998,5.19909529 C11.8702616,5.19909529 11.9466648,5.18624356 12.0211414,5.15936956 C12.1886283,5.09879332 12.3224618,4.97676291 12.3980846,4.81549451 C12.4737317,4.6542261 12.4820232,4.47322896 12.4215201,4.30574198 Z M1.54474304,7.23422791 C1.5112115,7.3059732 1.45165949,7.36035526 1.3771829,7.38722926 C1.22342556,7.44275749 1.05310974,7.36294024 0.997654674,7.20928045 L0.38789282,5.52280265 C0.332364594,5.36904531 0.412181846,5.19872949 0.565841638,5.14307933 C0.599080536,5.13117868 0.633002258,5.12547223 0.666338702,5.12547223 C0.787808219,5.12547223 0.901815445,5.20063164 0.945540569,5.32122324 L1.55520488,7.00760349 C1.58217643,7.08210447 1.57846967,7.16260455 1.54474304,7.23422791 Z M1.81119073,6.62695348 L1.38584013,5.45020382 L4.20058708,4.43264971 L4.62601084,5.60939937 L1.81119073,6.62695348 Z M5.05821406,9.98505765 L5.89984344,8.16245401 C6.07176878,8.22027457 6.25010778,8.24941653 6.42891013,8.24941653 C6.60741984,8.24941653 6.78631974,8.22017703 6.95997652,8.16216137 L7.80189854,9.98496011 L5.05821406,9.98496011 L5.05821406,9.98505765 Z M6.87376998,7.80065482 C6.54835556,7.91829565 6.19684751,7.90305404 5.88287039,7.75807587 C5.88287039,7.75807587 5.88277284,7.75797832 5.88269968,7.75797832 C5.88260214,7.75797832 5.88250459,7.75788078 5.8823095,7.75778323 C5.88011471,7.75683215 5.87791992,7.75597862 5.87582267,7.75493 C5.56023604,7.60690351 5.3211257,7.34474785 5.20253379,7.01694355 C4.95791209,6.34011862 5.30951769,5.59042661 5.98624507,5.34570736 C6.13227187,5.29293482 6.28173717,5.26798736 6.42871504,5.26798736 C6.96312238,5.26798736 7.46563209,5.59871805 7.65748126,6.12951618 C7.90210297,6.80624356 7.55049737,7.55603312 6.87376998,7.80065482 Z M12.0628668,4.65832305 C12.0293352,4.73004396 11.9698076,4.78435285 11.8953066,4.81120247 C11.7415737,4.86673069 11.5712335,4.78691344 11.5157053,4.63325365 L10.1217688,0.777419539 C10.0662162,0.623662201 10.1461554,0.453443926 10.2997908,0.397891314 C10.3329565,0.385795574 10.3668538,0.380186663 10.4002147,0.380186663 C10.5216598,0.380186663 10.635789,0.455346079 10.6794165,0.575840132 L12.0732555,4.43169863 C12.100227,4.50607768 12.0965934,4.5866753 12.0628668,4.65832305 Z"/>
    <path d="M6.12988198,5.74303778 C5.90820804,5.82314767 5.7308445,5.98490381 5.63073762,6.19848141 C5.53060635,6.41186392 5.51975433,6.65153515 5.59986422,6.87330664 C5.67997411,7.09505374 5.84173024,7.27234412 6.0552103,7.372451 C6.17428993,7.42827187 6.30163661,7.45638958 6.42939786,7.45638958 C6.53065091,7.45638958 6.63209905,7.43875809 6.73013307,7.4033244 C6.95178263,7.32321451 7.12917056,7.16145838 7.22927743,6.94797832 C7.32931115,6.73459582 7.34026073,6.49492458 7.26015084,6.27305555 C7.0945904,5.81534397 6.58761794,5.57747734 6.12988198,5.74303778 Z M6.89396207,6.79080686 C6.83594641,6.91473942 6.73308385,7.00865212 6.60417643,7.05515731 C6.47548848,7.10173566 6.33631432,7.09534638 6.21238176,7.03713563 C6.08844919,6.97914436 5.99451212,6.87625741 5.94803131,6.74737438 C5.90145296,6.61866205 5.90784224,6.47948788 5.96595544,6.35555532 C6.02404426,6.23162276 6.12702875,6.13771007 6.25581424,6.09120488 C6.31307391,6.0704519 6.37174801,6.06062412 6.42947102,6.06062412 C6.63934186,6.06062412 6.83672678,6.19058016 6.91198374,6.39898781 C6.9585621,6.52770014 6.95217281,6.6668743 6.89396207,6.79080686 Z"/>
  </g>
</svg>
